X:169
T:Hui main, au doz mois de mai
C:Manuscript de Montpellier (XIIIe siècle)
R:Motet
M:3/4
L:1/8
Q:1/4=208
K:G 
V:1
f4g2 | a4d2 | g4fe | f3- f2z | 
e4g2 | f4gf | edc2d2 | B3- B2z | 
f4g2 | a4d2 | g4 (3gfe | f3- f2z | 
e4g2 | f4gf | edc2d2 | B3- B2z | 
B4A2 | d4e2 | dcB2A2 | B4c2 | 
d4c2 | B3- B2z | g4g2 | fed2e2 | 
d4ef | g4g2 | fed2e2 | d4G2 | 
A2B2c2 | d4c2 | B4B2 | d4d2 | 
e4d2 | c2B2A2 | B4G2 | A4B2 | 
cde2dc | c6 | B6 |]
V:2
B,,6 | A,,6 | C,6 | B,,3- B,,2z | 
A,,6 | B,,6 | G,,6 | B,,3- B,,2z | 
B,,6 | A,,6 | C,6 | B,,3- B,,2z | 
A,,6 | B,,6 | G,,6 | B,,3- B,,2z | 
B,,6 | A,,6 | C,6 | B,,3- B,,2z | 
A,,6 | B,,3- B,,2z | G,,6 | B,,3- B,,2z | 
D,6 | D,6 | D,6 | D,6 | 
B,,6 | A,,6 | B,,3- B,,2z | B,,6 | 
A,,6 | C,6 | B,,6 | A,,6 | 
B,,6 | G,,6 | B,,6 |]





